Unicodia/Resources/Scripts/A500.svg

<?xml version="1.0" encoding="UTF-8" standalone="no"?>
<!-- Created with Inkscape (http://www.inkscape.org/) -->

<svg
   width="16"
   height="16"
   viewBox="0 0 16 16"
   version="1.1"
   id="svg5"
   inkscape:version="1.2.2 (732a01da63, 2022-12-09)"
   sodipodi:docname="A500.svg"
   inkscape:export-filename="..\0000.png"
   inkscape:export-xdpi="96"
   inkscape:export-ydpi="96"
   xml:space="preserve"
   xmlns:inkscape="http://www.inkscape.org/namespaces/inkscape"
   xmlns:sodipodi="http://sodipodi.sourceforge.net/DTD/sodipodi-0.dtd"
   xmlns="http://www.w3.org/2000/svg"
   xmlns:svg="http://www.w3.org/2000/svg"><sodipodi:namedview
     id="namedview7"
     pagecolor="#ffffff"
     bordercolor="#666666"
     borderopacity="1.0"
     inkscape:pageshadow="2"
     inkscape:pageopacity="0"
     inkscape:pagecheckerboard="0"
     inkscape:document-units="px"
     showgrid="true"
     width="16mm"
     units="px"
     inkscape:zoom="33.322407"
     inkscape:cx="4.2463919"
     inkscape:cy="5.9119379"
     inkscape:window-width="1680"
     inkscape:window-height="998"
     inkscape:window-x="-8"
     inkscape:window-y="-8"
     inkscape:window-maximized="1"
     inkscape:current-layer="layer1"
     showguides="true"
     inkscape:guide-bbox="true"
     inkscape:snap-bbox="true"
     inkscape:bbox-paths="true"
     inkscape:bbox-nodes="true"
     inkscape:snap-global="true"
     inkscape:showpageshadow="2"
     inkscape:deskcolor="#ffffff"><inkscape:grid
       type="xygrid"
       id="grid828"
       originx="0"
       originy="0" /></sodipodi:namedview><defs
     id="defs2" /><g
     inkscape:label="Layer 1"
     inkscape:groupmode="layer"
     id="layer1"><rect
       style="opacity:1;fill:#f5deb3;stroke:none;stroke-width:4.4376;stroke-linejoin:bevel;stop-color:#000000;fill-opacity:1"
       id="rect691"
       width="16"
       height="16"
       x="0"
       y="0" /><path
       d="m 7.314373,6.4683545 c 0.975478,0 2.1642574,-0.3716813 2.3514124,-1.2243958 h 1.3362006 v 8.5385503 h 2.358878 v 1.208285 H 7.314373 V 13.782509 H 9.7478984 V 10.471807 H 5.0898613 V 7.1369394 C 4.8023274,6.9363923 4,6.3767973 4,4.3981593 V 2.1990796 H 1.6411222 V 0.9907943 H 7.6876133 V 2.1990796 H 5.254087 v 2.1749136 c 0,1.5970553 0.6675536,2.0943613 2.060286,2.0943613 z M 9.7478984,7 c -0.492065,0.3218087 -1.2983528,0.6766398 -2.4633847,0.6766398 -0.3433812,0 -0.6569029,-0.024168 -0.9405656,-0.072497 v 1.6593785 h 3.4039503 z"
       style="fill:#784421;stroke-width:0.999999"
       id="path2396" /></g></svg>

<svg height="16" viewBox="0 0 16 16" width="16" xmlns="http://www.w3.org/2000/svg"><path d="m0 0h16v16h-16z" fill="#f5deb3"/><path d="m7.31 6.47c.98 0 2.16-.37 2.35-1.22h1.34v8.54h2.36v1.21h-6.05v-1.22h2.44v-3.31h-4.66v-3.33c-.29-.2-1.09-.76-1.09-2.74v-2.2h-2.36v-1.21h6.05v1.21h-2.44v2.17c0 1.6.67 2.09 2.06 2.09zm2.44.53c-.49.32-1.3.68-2.46.68-.34 0-.66-.02-.94-.07v1.66h3.4z" fill="#784421"/></svg>
